icon/pk/tiger-zodiac.svg

<svg viewBox="0 0 48 48" fill="none" xmlns="http://www.w3.org/2000/svg" height="1em" width="1em">
  <path d="M6 44V15C6 13.5 7 9.8 11 7L8.5 4C10.1667 4 14.1 4.6 16.5 7C20.6667 6.66667 30 9 26.5 15C25.6101 16.3349 24 17 21 17" stroke="black" stroke-width="4" stroke-linecap="round" stroke-linejoin="round"/>
  <path d="M19 24C23 24 31 29 31 38C31 40 32 42.8834 36.1343 42.4015C39 42.0674 41.6269 40.0523 43 35.8759" stroke="black" stroke-width="4" stroke-linecap="round" stroke-linejoin="round"/>
  <path d="M17 44.0003C17 40.0001 19 35.0003 27 35.0003L30 35.0003" stroke="black" stroke-width="4" stroke-linecap="round" stroke-linejoin="round"/>
</svg>

<svg width="48" height="48" fill="none" xmlns="http://www.w3.org/2000/svg"><path d="M6 44V15c0-1.5 1-5.2 5-8L8.5 4c1.667 0 5.6.6 8 3 4.167-.333 13.5 2 10 8-.89 1.335-2.5 2-5.5 2" stroke="#000" stroke-width="4" stroke-linecap="round" stroke-linejoin="round"/><path d="M19 24c4 0 12 5 12 14 0 2 1 4.883 5.134 4.401C39 42.067 41.627 40.052 43 35.877" stroke="#000" stroke-width="4" stroke-linecap="round" stroke-linejoin="round"/><path d="M17 44c0-4 2-9 10-9h3" stroke="#000" stroke-width="4" stroke-linecap="round" stroke-linejoin="round"/></svg>
